!!!OTL-incipit: ES GING AMOL A BETTELSMANN HERAUS
!!!ARE: Europa, Mitteleuropa, Deutschland, Kuhlaendchen
!!!SCT: Z0167
!!!YEM: Copyright 1995, estate of Helmut Schaffrath.
**kern	**text
*ICvox	*
*M2/4	*
*k[f#]	*
*G:	*
!LO:TX:a:t=Aus dem Kuhländchen.	!
{8d	Es
=1	=1
8g	ging
16bL	a-
16gJ	.
8a	-mol
16cc/L	a
16aJ	.
=2	=2
16g	Bettelsmann
16g	.
16b/	.
16g	heraus,
8a;}	.
{8d	ar
=3	=3
8g	ging
8b/	wohl
8.dd	für
16b	der
=4	=4
16dd	ſchönen
16dd	.
16bL	Frau'n
16gJ	.
8a;}	Haus,
{8a	ar
=5	=5
8b	bat
8dd	ſie
8.cc	um
16b	an
=6	=6
8dd	Al-
16ccL	-moſen
16bJ	.
8a;}	an,
{8a	daß
=7	=7
8cc	er
16b	ſich
16a	hübſch
8cc	fein
16bL	er-
16aJ	.
=8	=8
8b/	-näh-
8d	-ren
8g;}	kann,
{8b/	daß
=9	=9
8cc	er
16b	ſich
16a	hübſch
8cc	fein
16b/L	er-
16aJ	.
=10	=10
8b/	-näh-
8d	-ren
8g}	kann.
==	==
!!!AGN: Erzaehlung, lustige Romanze
!!!ONB: ESAC (Essen Associative Code) Database: ZUCCAL
!!!AMT: simple duple
!!!AIN: vox
!!!EED: Helmut Schaffrath
!!!EEV: 1.0
!!!GTL: II. Erzahlungen, lustige Romanzen, Kinder-Lieder und episch-lyrische Volks-Lieder.
!!!URL-scan: https://www.digitale-sammlungen.de/de/view/bsb11160571?page=314
!!!ENC: Anna Maria Matuszewska
!!!EEV: 2025/01/28
*-	*-
